X:5
T:T204A- Montrose Lyns
S:Blaikie MS, c 1692
Q:120
M:C
K:G
G,|B,DEG|BA/G/DE|GAAA/G/|E3D|(F/E/((F/G/) (A/G/)A/G/|\
(A/B/A/)G/DE|d3||a|dBAG|cdeg|(d/g/d)B/ (A/B/A/)G/|A3G|\
FGAG|ABe2|ABAG|A3G|A,DEG|ABeg|(d/e/d/)B/ (A/B/A/)G/|G3|]

